X: 04054
T: MARNIE'S WEDDING
C: Bob McQuillen 8 Oct 78
B: Bob's Note Book 04 #54
%R: jig
Z: 2020 John Chambers <jc:trillian.mit.edu>
M: 6/8
L: 1/8
K: D
A \
| fgf fed | dcB A2G | FAd dcd | egf e2A |\
| fgf fed | eaa fed | Adf agf | edc d2 :|
|: A \
| dfa fdf | edc d2A | DFA dfe | dcd e2A |\
| dfa fdf | Bed cBA | GAB Afd | cBc d2 :|
%%begintext align
%% With love and Best Wishes always
%% to Marnie McLean. She and Donnie
%% just got married, and they live over in
%% Westminster West, Vermont.
%%endtext

%%sep 1 1 500

%%sep 1 1 500

